X:1
T:Title
%%score ( 1 2 3 ) { 4 | 5 }
L:1/8
Q:1/4=112
M:4/4
K:G
V:1 treble nm="Grand Piano, Staff"
V:2 treble 
V:3 treble 
V:4 bass nm="Choir Pad, Aberdeen, CM"
V:5 bass 
V:1
 [DG]4 [DA]2 [DB]2 | D2 [B,G]2 [EA]2 [DF]2 | [DG]4 [GB]4 | [FA]2 [Gd]2 c-[Fc] [GB]2 | [FA]4 G4 | %5
w: By~Bremner�s~Collection,~1763 * *|||||
 [FA]2 B-[=FB] [Ec]2 [DB]2 | z2 G2 z4 | D4 [CE]2 [Ec]2 | z2 A2 z4 | z8 |] %10
w: |||||
V:2
 x8 | x8 | x8 | z4 .E2 z2 | x8 | z2 .G2 z4 | [DA]2 D^C [DF]4 | x8 | B2 z C [B,G]4- | [B,G]4 z4 |] %10
V:3
 x8 | x8 | x8 | x8 | x8 | x8 | x8 | x8 | D4 z4 | x8 |] %10
V:4
 B,4 F,2 G,2 | A,2 B,2 C2 A,2 | B,4[K:treble] D4 | DC B,2 C2 D2 | D4 B,4 | D2 D2 C2[K:bass] G,2 | %6
 A,2 A,2 A,4 | G,4 G,2 G,2 | G,2 F,2 G,4- | G,4 z4 |] %10
V:5
 G,4 D,2 z2 | F,2 E,2 C,2 D,2 | G,,4 G,4 | D,2 z2 A,2 G,2 | D,4 G,4 | D,2 G,2 C,2 z2 | %6
 F,2 E,2 D,4 | B,,4 C,2 C,2 | D,2 D,2 G,,4- | G,,4 z4 |] %10

